lib/svg/unmute.svg

<svg xmlns="http://www.w3.org/2000/svg" width="16" height="16" viewBox="0 0 16 16"><path d="M12 8.02c0 1.09-.45 2.09-1.17 2.83l-.67-.67c.55-.56.89-1.31.89-2.16 0-.85-.34-1.61-.89-2.16l.67-.67A3.99 3.99 0 0 1 12 8.02zM7.72 2.28L4 6H2c-.55 0-1 .45-1 1v2c0 .55.45 1 1 1h2l3.72 3.72c.47.47 1.28.14 1.28-.53V2.81c0-.67-.81-1-1.28-.53zm5.94.08l-.67.67a6.996 6.996 0 0 1 2.06 4.98c0 1.94-.78 3.7-2.06 4.98l.67.67A7.973 7.973 0 0 0 16 8c0-2.22-.89-4.22-2.34-5.66v.02zm-1.41 1.41l-.69.67a5.05 5.05 0 0 1 1.48 3.58c0 1.39-.56 2.66-1.48 3.56l.69.67A5.971 5.971 0 0 0 14 8.02c0-1.65-.67-3.16-1.75-4.25z"/></svg>

<?xml version="1.0" encoding="UTF-8" standalone="no"?>
<svg width="16px" height="16px" viewBox="0 0 16 16" version="1.1" xmlns="http://www.w3.org/2000/svg" xmlns:xlink="http://www.w3.org/1999/xlink">
    <!-- Generator: Sketch 3.8.3 (29802) - http://www.bohemiancoding.com/sketch -->
    <title>unmute</title>
    <desc>Created with Sketch.</desc>
    <defs></defs>
    <g id="Octicons" stroke="none" stroke-width="1" fill="none" fill-rule="evenodd">
        <g id="unmute" fill="#000000">
            <path d="M12,8.02 C12,9.11 11.55,10.11 10.83,10.85 L10.16,10.18 C10.71,9.62 11.05,8.87 11.05,8.02 C11.05,7.17 10.71,6.41 10.16,5.86 L10.83,5.19 C11.55,5.91 12,6.91 12,8.02 L12,8.02 Z M7.72,2.28 L4,6 L2,6 C1.45,6 1,6.45 1,7 L1,9 C1,9.55 1.45,10 2,10 L4,10 L7.72,13.72 C8.19,14.19 9,13.86 9,13.19 L9,2.81 C9,2.14 8.19,1.81 7.72,2.28 L7.72,2.28 Z M13.66,2.36 L12.99,3.03 C14.27,4.31 15.05,6.06 15.05,8.01 C15.05,9.95 14.27,11.71 12.99,12.99 L13.66,13.66 C15.11,12.21 16,10.21 16,8 C16,5.78 15.11,3.78 13.66,2.34 L13.66,2.36 Z M12.25,3.77 L11.56,4.44 C12.48,5.36 13.04,6.63 13.04,8.02 C13.04,9.41 12.48,10.68 11.56,11.58 L12.25,12.25 C13.33,11.17 14,9.67 14,8.02 C14,6.37 13.33,4.86 12.25,3.77 L12.25,3.77 Z" id="Shape"></path>
        </g>
    </g>
</svg>
